!!! OTL: Berkowitz493
!!! Chapter: 1
!!! Section: IV
!!! Page: 123
!!! Mode: 
!!! Encoder: DJB
**kern
*staff1
*I"Piano
=1-
*clefC3
*k[f#c#]
*b:
*M3/4
4r
8.r
16B/
8.d\L
16g\Jk
=2
4.e#\
8f#\
16en\LL
16d\
16c#\
16B\JJ
=3
4B/
8A#/
16r
16c#\
8.e\L
16a\Jk
=4
4.g\
16f#\LL
16e\JJ
16d\LL
16c#\
16d\
16e\JJ
=5
4e#\
8f#\
16r
16B/
8.f#\L
16b\Jk
=6
4a\
[4cc#\
16cc#\LL]
16a\
16f#\
16d#\JJ
=7
!!linebreak:original
8e\L
8f#\J
8g\L
8a\J
8.a#\L
16b\Jk
=8
8.f#\L
16d\Jk
8.B\L
16b\Jk
8.g\L
16e\Jk
=9
[4c#\
16c#\LL]
16g\
16f#\
16e\JJ
16d/LL
16c#/
16B/
16A#/JJ
=10
4A#/
8B/
8r
4r
==
*-
